X: 081
T: Kate's Valentine
%R: reel
Z: 2014 John Chambers <jc:trillian.mit.edu>
B: Thompson "Twenty four Country Dances for the Year 1805" p.8 #1
F: http://folkopedia.efdss.org/images/2/2a/Thompson_24_1805.PDF 2014-8-13
N: Both strains have short last measures; fixed in a simple way.
M: C|
L: 1/8
K: G
!segno!|:\
g/f/g/a/ gbgbgb | c'agf g/f/g/a/ gd |\
g/f/g/a/ gbgbgb | c'agf ga Hg2 :|
c'c'aa d'd'bg | f/g/a/f/ db b2 Ta2 |\
c'c'aa d'd'bg | f/g/a/f/ ea d3"_D.C."e |]
% - - - - - - - - - - - - - - - - - - - - - - - - -
%%begintext align
%% Change sides back again, hands
%% across back again, lead down the
%% middle up again & Allemande.
%%endtext
% - - - - - - - - - - - - - - - - - - - - - - - - -
